X: 1
T: Sweet Jenny Jones
N: AKA "Lighthearted I Stroll Through the Vale of Llangollen"
R: waltz
Z: 2005 John Chambers <jc:trillian.mit.edu>
M: 3/4
L: 1/4
K: G
e/f/ | "G"gdB  | "(Em)"G>AB | "Am"cea | "D"fef |     "G"gdB | "C"c>de | "D7"dgf | "G"g2  :|
g/a/ | "G"bgb  |    "D"afa  |  "C"geg | "D"fdf | "G(Em)"bgb | "D"afa  | "A7"gfe | "D7"def |
y3   | "G"g>dB |   "Em"G>AB | "Am"cea | "D"fef |     "G"gdB | "C"c>de | "D7"dgf | "G"g2  |]
